assets/icons/play.svg

<svg width="21" height="21" viewBox="0 0 21 21" fill="none" xmlns="http://www.w3.org/2000/svg">
<path d="M10.5925 6.3411L10.5375 6.30777C9.91419 5.9286 9.36586 5.59443 8.89586 5.4261C8.63677 5.32652 8.35978 5.28197 8.08253 5.29527C7.79067 5.31754 7.51171 5.42473 7.28003 5.6036C6.79753 5.96527 6.58919 6.49777 6.47503 7.08693C6.36419 7.65777 6.32169 8.4011 6.26919 9.3061L6.26669 9.35277C6.23503 9.89443 6.21503 10.4303 6.21503 10.9161C6.21503 11.4019 6.23503 11.9386 6.26669 12.4803L6.26919 12.5261C6.32169 13.4311 6.36419 14.1744 6.47503 14.7444C6.58919 15.3344 6.79753 15.8661 7.28003 16.2286C7.51836 16.4078 7.78586 16.5144 8.08253 16.5369C8.36753 16.5578 8.64086 16.4978 8.89586 16.4061C9.36586 16.2378 9.91419 15.9036 10.5375 15.5253L10.5925 15.4919C10.9475 15.2753 11.2959 15.0528 11.6067 14.8336C11.9874 14.5628 12.3584 14.2787 12.7192 13.9819L12.7609 13.9478C13.3975 13.4286 13.9375 12.9878 14.3109 12.5544C14.7175 12.0794 14.965 11.5694 14.965 10.9161C14.965 10.2628 14.7175 9.75193 14.31 9.27777C13.9375 8.84443 13.3975 8.40277 12.7617 7.88443L12.72 7.85027C12.3417 7.54193 11.9617 7.24693 11.6067 6.9986C11.2756 6.76854 10.9374 6.54899 10.5925 6.34027" fill="currentColor"/>
</svg>

<svg xmlns="http://www.w3.org/2000/svg" width="21" height="21" fill="none" viewBox="0 0 21 21"><path fill="currentColor" d="m10.593 6.341-.056-.033c-.623-.38-1.171-.714-1.641-.882a2 2 0 0 0-.813-.13 1.5 1.5 0 0 0-.803.308c-.482.361-.69.894-.805 1.483-.11.57-.153 1.314-.206 2.22l-.002.046a27 27 0 0 0-.052 1.563c0 .486.02 1.023.052 1.564l.002.046c.053.905.095 1.648.206 2.218.114.59.323 1.122.805 1.485.238.179.506.285.803.308.285.02.558-.04.813-.13.47-.17 1.018-.503 1.641-.882l.055-.033c.355-.217.704-.44 1.015-.658q.57-.407 1.112-.852l.042-.034c.637-.52 1.177-.96 1.55-1.394.406-.475.654-.985.654-1.638s-.248-1.164-.655-1.638c-.373-.434-.912-.875-1.548-1.394l-.042-.034A20 20 0 0 0 11.607 7q-.497-.345-1.014-.659"/></svg>
